!!!!SEGMENT: pl-wnifc--6439-n--011_anonim--mazur-no-11.krn
!!!cenid: 18xx:3954
!!!COM: Anonim
!!!COM-rismID: pe30004985
!!!CDT:
!!!CNT:
!!!OTL: [Mazur] No. 11
!!!PDT: 1827
!!!AGN:
!!!SMS-siglum: PL-Wnifc
!!!SMS-shelfmark: 6439/n
!!!SMS-shelfwork: 011 W
!!!SMS-variant:
!!!SMS-altvar:
!!!NIFC-rismSourceID: 1001011210
!!!NIFC-rismChildID: 1001011242
!!!NIFC-islandoraID: nifc:212734
!!!URL-pdf-islandora: https://repozytorium.nifc.pl/islandora/object/nifc:212734/datastream/PDF/view
!!!URL-scan: https://polish.musicsources.pl/pl/lokalizacje/galeria/druki-muzyczne/16857 @EN{Scan on Polish Music Sources Website} @PL{Skany w portalu Dziedzictwo Muzyki Polskiej w otwartym dostępie}
!!!IIIF:
!!!ONB-nifc: str. 8 w połowie 3.linii (skan 0005)
!!!AIN: 2 piano
!!!key: D
**kern	**kern
*part2	*part1
*staff2	*staff1
*I"Piano	*I"Pianoforte
*	*I'pf
*Ipiano	*Ipiano
*ICklav	*ICklav
*clefF4	*clefG2
*k[f#c#]	*k[f#c#]
*D:	*D:
*M3/8	*M3/8
=1	=1
!	!LO:TX:a:t=No 11.
*tremolo	*
8D\L 8F# 8A	8f#\L 8dd
8D\ 8F# 8A	16dd\L 16ff#
.	16a\ 16ee
.	8qgg/
8D\J 8F# 8A	16ff#\
.	16ee\JJ
=2	=2
.	8qgg/
8D\L 8F# 8A	16ff#\LL
.	16ee\J
8D\ 8F# 8A	8ff#\
.	8qgg#X/
8D\J 8F# 8A	8aa\J
=3	=3
.	8qgg/
8D\L 8F# 8A	16ff#\LL
.	16ee\
8D\ 8F# 8A	16dd\
.	16ff#\
8D\J 8F# 8A	16bb\
.	16aa\JJ
=4	=4
8D\L 8F# 8A	16.dd\LL 16.ff#
.	32a\JJk
8D\ 8F# 8A	4dd\
8D\J 8F# 8A	.
!LO:LB:g=original	!LO:LB:g=original
=5	=5
8AA\L 8C# 8E 8A	16.cc#\LL 16.ee
.	32ff#\JJk
.	8qaa/
8AA\ 8C# 8E 8A	16gg\LL
.	16ff#\
8AA\J 8C# 8E 8A	16gg\
.	16bb\JJ
=6	=6
8AA\L 8C# 8E 8A	16gg\LL
.	16ee\JJ
8AA\ 8C# 8E 8A	8ff#\L
.	32qqgg/LLL
.	32qqff#/JJJ
8AA\J 8C# 8E 8A	16ee\L
.	16dd\JJ
=7	=7
8AA\L 8C# 8E 8A	16.cc#\LL
.	32dd\K
8AA\ 8C# 8E 8A	16ee\
.	16a\
8AA\J 8C# 8E 8A	16b\
.	16cc#\JJ
=8	=8
8D\ 8F# 8A	16ee\LL
.	16dd\JJ
4D\ 4F# 4A	4dd\
=9:|!|:	=9:|!|:
8D\L 8F# 8A	16.dd\LL
.	32ff#\JJk
8D\ 8F# 8A	16bb\LL
.	16aa\
8D\J 8F# 8A	16ff#\
.	16dd\JJ
=10	=10
8AA\L 8C# 8E 8A	8a\ 8cc#
8AA\ 8C# 8E 8A	4a^\ 4cc# 4ee
8AA\J 8C# 8E 8A	.
=11	=11
8AA\L 8C# 8E 8A	16.a/LL
.	32b/JJk
8AA\ 8C# 8E 8A	16cc#\LL
.	16a\
8AA\J 8C# 8E 8A	16b\
.	16cc#\JJ
=12	=12
8D\L 8F# 8A	8f#\ 8a 8dd
8D\ 8F# 8A	4a^\ 4dd 4ff#
8D\J 8F# 8A	.
=13	=13
8AA\L 8C# 8E 8A	16.ee\LL
.	32ff#\K
8AA\ 8C# 8E 8A	16gg\
.	16aa\
8AA\J 8C# 8E 8A	16bb\
.	16ccc#\JJ
=14	=14
8D\L 8F# 8A	16.ddd\LL
.	32ff#\JJk
8D\ 8F# 8A	8.bb\L
8D\J 8F# 8A	.
.	16aa\Jk
=15	=15
8AA\L 8C# 8E 8A	16gg\LL
.	16ff#\
8AA\ 8C# 8E 8A	16aa\
.	16gg\
8AA\J 8C# 8E 8A	16b\
.	16cc#\JJ
!LO:LB:g=original	!LO:LB:g=original
=16	=16
8D\ 8F# 8A	16ee\LL
.	16dd\JJ
4D\ 4F# 4A	4dd\
=17:|!|:	=17:|!|:
*k[f#]	*k[f#]
*^	*
*	*Xtremolo	*
8r	4G\	16.ddn\LL
.	.	32gg\JJk
!	!	!LO:TUP:a:problem:klamra łukowa
8B/L 8d	.	(24bb\LL
.	.	24aa\
.	.	24gg\JJ)
8B/J 8d	8r	16ff#\LL
.	.	16gg\JJ
=18	=18	=18
8r	4C\	16gg#X\LL
.	.	16aa\JJ
8E/L 8A	.	8.ccc\L
8E/J 8A	8r	.
.	.	16bb\Jk
=19	=19	=19
8r	4D\	16aa\LL
.	.	16dd\
8A/L 8c	.	16cc#X\
.	.	16dd\
8A/J 8c	8r	16ee\
.	.	16ff#\JJ
=20	=20	=20
8r	4G\	16.gg\LL
.	.	32ff#\JJk 32aa
8B/L 8d	.	8.gg\L 8.bb
8B/J 8d	8r	.
.	.	16dd\Jk
=21	=21	=21
8r	4BB\	16gg\LL
.	.	16ff#\
8D/L 8G	.	16ee\
.	.	16dd\
8D/J 8G	8r	16cc\
.	.	16b\JJ
=22	=22	=22
8r	4C\	16a\LL
.	.	16cc\
8E/L 8A	.	16ee\
.	.	16aa\
8E/J 8A	8r	16ccc\
.	.	16bb\JJ
=23	=23	=23
8r	4D\	16aa\LL
.	.	16gg\
8A/L 8c	.	16ff#\
.	.	16ccc\
8A/J 8c	8r	16aa\
.	.	16ff#\JJ
*v	*v	*
=24	=24
8G\ 8B	16aa\LL
.	16gg\JJ
4GG/	4gg\
=:|!	=:|!
*-	*-
!!!system-decoration: [(s1,s2)]
!!!ENC: Filip Voros
!!!END: 2022-07-28
!!!ENC: Julita Ruszuk
!!!END: 2022-07-28
!!!YEC: Copyright 2022 Narodowy Instytut Fryderyka Chopina (https://polishscores.org)
!!!YEM: License CC-BY-4.0 (https://creativecommons.org/licenses/by/4.0)
